!!!COM: Anonymous
!!!OPR:	Missa [Bergerette savoysienne]
!!!ONM:	1
!!!OTL:	Kyrie
!!!AGN:	Mass; Kyrie
!!!SCT:	Ano1001a
!!!SCA:	Ano1001a
!!!SMS:	Jena 32
!!!folio-OPR: 250v-264r
!!!voices-OPR:	4
!!!voices:	4
**kern	**kern	**kern	**kern
*staff4	*staff3	*staff2	*staff1
*Ivox	*Ivox	*Ivox	*Ivox
*I"Bassus	*I"Tenor	*I"Altus	*I"Superius
*I'B	*I'T	*I'A	*I'S
*>[A,B,C]	*>[A,B,C]	*>[A,B,C]	*>[A,B,C]
*>A	*>A	*>A	*>A
*clefF4	*clefGv2	*clefGv2	*clefG2
*k[]	*k[]	*k[]	*k[]
*M2/1	*M2/1	*M2/1	*M2/1
*met(C|)	*met(C|)	*met(C|)	*met(C|)
!!section: Kyrie I
!!!OMD: Kyrie I
!!incipit: 5
=1-	=1-	=1-	=1-
0r	0r	0c	0r
=2	=2	=2	=2
0r	0r	1d	0r
.	.	1e	.
=3	=3	=3	=3
0r	0r	1e	0cc
.	.	2e	.
.	.	[2f	.
=4	=4	=4	=4
0r	0r	2f]	1dd
.	.	4e	.
.	.	4d	.
.	.	2c	1ee
.	.	[2cc	.
=5	=5	=5	=5
0r	0r	4cc]	1ee
.	.	4b	.
.	.	4a	.
.	.	4g	.
.	.	2a	2ee
.	.	[2g	[2ee
=6	=6	=6	=6
0r	0r	4g]	4ee]
.	.	4f	4dd
.	.	1e	1cc
.	.	4d	4b
.	.	4c	4a
=7	=7	=7	=7
0r	0r	1d	1b
.	.	2r	1r
.	.	[2d	.
=8	=8	=8	=8
0r	0r	4d]	0ff
.	.	4e	.
.	.	4f	.
.	.	4g	.
.	.	[1a	.
=9	=9	=9	=9
0r	0r	2a]	1ee
.	.	1.g	.
.	.	.	[1dd
=10	=10	=10	=10
0r	0r	2f	2dd]
.	.	2g	4cc
.	.	.	4b
.	.	2e	2cc
.	.	[2f	[2dd
=11	=11	=11	=11
0r	0r	4f]	2dd]
.	.	4e	.
.	.	4d	1cc
.	.	4c	.
.	.	1d	.
.	.	.	2b
=12	=12	=12	=12
2r	0c	1c	1.cc
1C	.	.	.
.	.	1r	.
[2c	.	.	[2ee
=13	=13	=13	=13
2c]	1d	1.g	2ee]
2B	.	.	2dd
2c	1e	.	1cc
[2A	.	[2a	.
=14	=14	=14	=14
2A]	1e	2a]	1b
2G	.	2b	.
2A	2e	2cc	1a
[2c	[2e	4b	.
.	.	4a	.
=15	=15	=15	=15
4c]	4e]	2g	1r
4B	4d	.	.
1A	1c	2f	.
.	.	[1e	1a
4G	4B	.	.
4F	4A	.	.
=16	=16	=16	=16
2E	1B	2e]	1.g
1G	.	2.d	.
.	2r	.	.
.	.	4e	.
[2F	[2c	[2f	[2a
=17	=17	=17	=17
2F]	4c]	4f]	2a]
.	4d	4e	.
4E	4e	1c	4g
4D	4f	.	4f
2C	2g	.	2.e
2c	2c	2e	.
.	.	.	4c
=18	=18	=18	=18
2B	4g	2d	2d
.	4f	.	.
1c	4e	2.g	2c
.	4d	.	.
.	1c	.	1cc
.	.	4e	.
4B	.	2f#i	.
4A	.	.	.
=19	=19	=19	=19
1G	0d	1g	2b
.	.	.	1dd
2r	.	2r	.
2G	.	2g	4cc
.	.	.	4b
=20	=20	=20	=20
1F	1.f	1c	1a
1D	.	1d	2r
.	4e	.	[2a
.	4d	.	.
=21	=21	=21	=21
2r	2c	2r	2a]
1G	2d	1B	1b
.	1G	.	.
2E	.	[2c	2g
=22	=22	=22	=22
1F	1.A	4c]	1cc
.	.	4B	.
.	.	4A	.
.	.	4G	.
1D	.	1F	1dd
.	2B	.	.
=23	=23	=23	=23
1C	1c	1G	1ee
2r	[1f	1A	2cc
[2D	.	.	[2ff
=24	=24	=24	=24
2D]	2f]	1B-	2ff]
2BB-	2f	.	2dd
1C	1e	1G	2ee
.	.	.	2cc
=25	=25	=25	=25
0G	1.d	1r	1.dd
.	.	1g	.
.	4c	.	[2gg
.	4d	.	.
=26	=26	=26	=26
0A	1.c	1.e	4gg]
.	.	.	4ff
.	.	.	1ee
.	4B	2c	4dd
.	4c	.	4cc
=27	=27	=27	=27
1G	2B	[0g	1dd
.	4c	.	.
.	4B	.	.
1C	1c	.	[1cc
=28	=28	=28	=28
0G	0d	0g]	1cc]
.	.	.	1b
=29	=29	=29	=29
0Cl	0cl	0gl	0ccl
!!LO:LB:i:g=z
=30||	=30||	=30||	=30||
*>B	*>B	*>B	*>B
*clefF4	*clefGv2	*clefGv2	*clefG2
*k[]	*k[]	*k[]	*k[]
*M2/1	*M2/1	*M2/1	*M2/1
*met(C|)	*met(C|)	*met(C|)	*met(C|)
!!section: Christe
!!!OMD: Christe
0r	0r	1.cc	1.ee
.	.	4b	4dd
.	.	4a	4cc
=31	=31	=31	=31
0r	0r	1.b	1dd
.	.	.	[1gg
.	.	[2cc	.
=32	=32	=32	=32
0r	0r	4cc]	1gg]
.	.	4b	.
.	.	4a	.
.	.	4g	.
.	.	1a	1ff#i
=33	=33	=33	=33
1.c	0e	[0g	0gg
4B	.	.	.
4A	.	.	.
=34	=34	=34	=34
1.B	1d	0g]	0r
.	[1g	.	.
[2c	.	.	.
=35	=35	=35	=35
4c]	1g]	0r	1r
4B	.	.	.
4A	.	.	.
4G	.	.	.
1A	1f#i	.	1cc
=36	=36	=36	=36
0G	0g	1r	2b
.	.	.	4cc
.	.	.	4dd
.	.	[1g	2ee
.	.	.	[2dd
=37	=37	=37	=37
0r	0r	1g]	2dd]
.	.	.	4cc
.	.	.	4b
.	.	1f	1a
=38	=38	=38	=38
1r	0g	2g	1g
.	.	4f	.
.	.	4e	.
[1G	.	[1d	1r
=39	=39	=39	=39
1G]	0a	2d]	0r
.	.	2e	.
1F	.	1f	.
=40	=40	=40	=40
0G	0g	2e	0r
.	.	1d	.
.	.	4c	.
.	.	4B	.
=41	=41	=41	=41
[0A	[0f	[0c	0r
=42	=42	=42	=42
0A]	1f]	1.c]	2r
.	.	.	2.c
.	[1e	.	.
.	.	.	4d
.	.	4B	4e
.	.	4A	4f
=43	=43	=43	=43
1G	2e]	1B	1g
.	2d	.	.
1F	[1d	[1A	1a
=44	=44	=44	=44
0E	1d]	1A]	2b
.	.	.	2.cc
.	1c#i	1G	.
.	.	.	4b
.	.	.	4a
.	.	.	4g
=45	=45	=45	=45
0D	0d	2A	2f
.	.	1f	1a
.	.	4e	4g
.	.	4d	4f
=46	=46	=46	=46
1r	0r	2c	2e
.	.	2.d	2d
1d	.	.	1ff
.	.	4e	.
.	.	4f	.
.	.	4g	.
=47	=47	=47	=47
2c	0r	[0a	2ee
1d	.	.	1ff
4c	.	.	4ee
4B	.	.	4dd
=48	=48	=48	=48
1A	0r	1a]	1cc
2B	.	[1g	2dd
[2c	.	.	[2ee
=49	=49	=49	=49
2c]	0r	0g]	2ee]
4B	.	.	4dd
4A	.	.	4cc
1G	.	.	1b
=50	=50	=50	=50
2r	1r	[0f	1a
2.D	.	.	.
.	[1a	.	1r
4E	.	.	.
[2F	.	.	.
=51	=51	=51	=51
4F]	1a]	1f]	0r
4G	.	.	.
4A	.	.	.
4B	.	.	.
2c	[1g	[1e	.
2C	.	.	.
=52	=52	=52	=52
1c	1g]	1e]	1r
1d	1f	1d	[1dd
=53	=53	=53	=53
1G	0e	0r	1dd]
1A	.	.	1cc
=54	=54	=54	=54
2B-	0d	0r	2dd
4A	.	.	4cc
4G	.	.	4b
2F	.	.	2a
[2G	.	.	[2b-
=55	=55	=55	=55
4G]	0r	0r	4b-]
4A	.	.	4a
2B	.	.	1g
2c	.	.	.
2d	.	.	2f
=56	=56	=56	=56
1.G	0r	[0gl	2.g
.	.	.	4a
.	.	.	2b
[2c	.	.	[2cc
=57	=57	=57	=57
2c]	0r	0g_	2cc]
2B	.	.	2dd
1c	.	.	2ee
.	.	.	4dd
.	.	.	4cc
=58	=58	=58	=58
0Gl	0dl	0g]	0bl
!!LO:LB:i:g=z
=59||	=59||	=59||	=59||
*>C	*>C	*>C	*>C
*clefF4	*clefGv2	*clefGv2	*clefG2
*k[]	*k[]	*k[]	*k[]
*M2/1	*M2/1	*M2/1	*M2/1
*met(C|)	*met(C|)	*met(C|)	*met(C|)
!!section: Kyrie II
!!!OMD: Kyrie II
1r	1r	0r	0r
2r	2r	.	.
2B	2d	.	.
=60	=60	=60	=60
1.c	1.e	0r	1r
.	.	.	2r
2B	2d	.	2dd
=61	=61	=61	=61
2c	1c	1r	1.ee
4B	.	.	.
4A	.	.	.
2G	1B	2r	.
2B	.	[2g	2dd
=62	=62	=62	=62
1A	1c	2g]	1cc
.	.	2f	.
1G	1d	1g	1b
=63	=63	=63	=63
1r	1r	2e	1cc
.	.	2f	.
2r	2r	1d	1dd
2B	2d	.	.
=64	=64	=64	=64
1.c	1.e	0r	1r
.	.	.	2r
2B	2d	.	2dd
=65	=65	=65	=65
2c	1c	1r	1.ee
4B	.	.	.
4A	.	.	.
2G	1B	2r	.
2B	.	[2g	2dd
=66	=66	=66	=66
1A	1c	2g]	1cc
.	.	2f	.
1G	1d	1g	1b
=67	=67	=67	=67
1r	0r	2e	1cc
.	.	2f	.
2r	.	2.d	1dd
[2G	.	.	.
.	.	4c	.
=68	=68	=68	=68
4G]	0r	4B	0r
4F	.	4A	.
4E	.	1G	.
4D	.	.	.
1C	.	.	.
.	.	[2c	.
=69	=69	=69	=69
1D	1r	2c]	2r
.	.	2B	2dd
1C	2r	1c	2ee
.	[2g	.	4dd
.	.	.	4cc
=70	=70	=70	=70
0r	4g]	0r	2dd
.	4f	.	.
.	4e	.	2.ee
.	4d	.	.
.	1c	.	.
.	.	.	4dd
.	.	.	[2cc
=71	=71	=71	=71
0r	1d	1r	2cc]
.	.	.	2b
.	1c	2r	2.cc
.	.	[2c	.
.	.	.	4dd
=72	=72	=72	=72
0c	0r	4c]	4ee
.	.	4d	4ff
.	.	2.e	2.gg
.	.	4f	4ff
.	.	[2g	[2ee
=73	=73	=73	=73
0G	[0g	4g]	4ee]
.	.	4f	4dd
.	.	2e	1cc
.	.	1d	.
.	.	.	2b
=74	=74	=74	=74
2r	0g]	1c	1cc
1C	.	.	.
.	.	2r	1r
[2G	.	[2B	.
=75	=75	=75	=75
4G]	0r	2B]	1r
4F	.	.	.
4E	.	2.e	.
4D	.	.	.
1C	.	.	2r
.	.	4d	.
.	.	[2c	2ee
=76	=76	=76	=76
1D	0r	2c]	1ff
.	.	2B	.
2C	.	1c	2ee
2c	.	.	[2gg
=77	=77	=77	=77
2B	2r	0r	4gg]
.	.	.	4ff
2c	2.g	.	2ee
2G	.	.	2dd
.	4f	.	.
[2c	4e	.	[2ee
.	4d	.	.
=78	=78	=78	=78
2c]	1c	0g	4ee]
.	.	.	4dd
4B	.	.	1cc
4A	.	.	.
1G	1d	.	.
.	.	.	2b
=79	=79	=79	=79
0Cl	0cl	0gl	0ccl
==	==	==	==
*-	*-	*-	*-
!!!RDF**kern: l=long note in original notation
!!!RDF**kern: i=editorial accidental
!!!ENC:	Jesse Rodin 8/14/2013
!!!END:	2013/08/14/
!!!EED:	Jesse Rodin
!!!EEV:	2013/08/14/
!!!ONB:	Translated from MusicXML and edited on 2013/08/14/ by Craig Sapp
!!muse2ps: T^@{OPR}^u^@{ONM}{. }@{OTL}^C^@{COM}\n@{SMS}, @{folio-OPR}^i2I150v85,85,85,150c180
